_includes/icons/ios-lock.svg

<svg fill="#666" height="50" viewBox="0 0 50 50" width="50" xmlns="http://www.w3.org/2000/svg"><path d="m25 3c-6.636719 0-12 5.363281-12 12v5h-4c-1.644531 0-3 1.355469-3 3v24c0 1.644531 1.355469 3 3 3h32c1.644531 0 3-1.355469 3-3v-24c0-1.644531-1.355469-3-3-3h-4v-5c0-6.636719-5.363281-12-12-12zm0 2c5.566406 0 10 4.433594 10 10v5h-20v-5c0-5.566406 4.433594-10 10-10zm-16 17h32c.554688 0 1 .445313 1 1v24c0 .554688-.445312 1-1 1h-32c-.554687 0-1-.445312-1-1v-24c0-.554687.445313-1 1-1zm16 8c-1.699219 0-3 1.300781-3 3 0 .898438.398438 1.6875 1 2.1875v2.8125c0 1.101563.898438 2 2 2 1.101563 0 2-.898437 2-2v-2.8125c.601563-.5 1-1.289062 1-2.1875 0-1.699219-1.300781-3-3-3z"/></svg>

<svg xmlns="http://www.w3.org/2000/svg" viewBox="0 0 50 50" width="50" height="50" fill="#666"><path d="M 25 3 C 18.363281 3 13 8.363281 13 15 L 13 20 L 9 20 C 7.355469 20 6 21.355469 6 23 L 6 47 C 6 48.644531 7.355469 50 9 50 L 41 50 C 42.644531 50 44 48.644531 44 47 L 44 23 C 44 21.355469 42.644531 20 41 20 L 37 20 L 37 15 C 37 8.363281 31.636719 3 25 3 Z M 25 5 C 30.566406 5 35 9.433594 35 15 L 35 20 L 15 20 L 15 15 C 15 9.433594 19.433594 5 25 5 Z M 9 22 L 41 22 C 41.554688 22 42 22.445313 42 23 L 42 47 C 42 47.554688 41.554688 48 41 48 L 9 48 C 8.445313 48 8 47.554688 8 47 L 8 23 C 8 22.445313 8.445313 22 9 22 Z M 25 30 C 23.300781 30 22 31.300781 22 33 C 22 33.898438 22.398438 34.6875 23 35.1875 L 23 38 C 23 39.101563 23.898438 40 25 40 C 26.101563 40 27 39.101563 27 38 L 27 35.1875 C 27.601563 34.6875 28 33.898438 28 33 C 28 31.300781 26.699219 30 25 30 Z"/></svg>
